static/images/home/add-tool.svg

<?xml version="1.0" encoding="UTF-8"?>
<svg width="82px" height="82px" viewBox="0 0 82 82" version="1.1" xmlns="http://www.w3.org/2000/svg" xmlns:xlink="http://www.w3.org/1999/xlink">
    <title>add-tool</title>
    <g id="add-tool" stroke="none" stroke-width="1" fill="none" fill-rule="evenodd">
        <g id="Group">
            <path d="M69.0754006,0.0407362125 C69.6260956,0.0826105195 70.0385762,0.562982859 69.9967019,1.11367786 C69.9548276,1.66437287 69.4744553,2.07685354 68.9237603,2.03497923 C68.6176281,2.01170124 68.3095706,2 68,2 C67.4477153,2 67,1.55228475 67,1 C67,0.44771525 67.4477153,0 68,0 C68.3601848,0 68.7188254,0.013622585 69.0754006,0.0407362125 Z M76.9623338,3.24427312 C77.3864501,3.5980298 77.4434878,4.22862047 77.0897311,4.65273679 C76.7359745,5.07685311 76.1053838,5.13389087 75.6812675,4.78013418 C75.4448251,4.58291691 75.2009281,4.39482536 74.9501368,4.2163198 C74.5001893,3.89606098 74.3950558,3.27168541 74.7153147,2.82173793 C75.0355735,2.37179045 75.659949,2.26665702 76.1098965,2.58691583 C76.4023248,2.79505734 76.6866858,3.01435433 76.9623338,3.24427312 Z M81.5386597,10.423108 C81.6794052,10.9571577 81.360569,11.5041874 80.8265193,11.6449328 C80.2924695,11.7856783 79.7454399,11.4668422 79.6046944,10.9327924 C79.526211,10.6349921 79.4363045,10.3407495 79.3352197,10.050593 C79.153525,9.5290515 79.4290253,8.95896597 79.9505667,8.7772713 C80.4721082,8.59557663 81.0421937,8.87107688 81.2238884,9.39261833 C81.3419645,9.73154739 81.4469854,10.0752556 81.5386597,10.423108 Z M82,18.7081023 C82,19.260387 81.5522847,19.7081023 81,19.7081023 C80.4477153,19.7081023 80,19.260387 80,18.7081023 L80,17.7081023 C80,17.1558175 80.4477153,16.7081023 81,16.7081023 C81.5522847,16.7081023 82,17.1558175 82,17.7081023 L82,18.7081023 Z M82,26.7081023 C82,27.260387 81.5522847,27.7081023 81,27.7081023 C80.4477153,27.7081023 80,27.260387 80,26.7081023 L80,25.7081023 C80,25.1558175 80.4477153,24.7081023 81,24.7081023 C81.5522847,24.7081023 82,25.1558175 82,25.7081023 L82,26.7081023 Z M82,34.7081023 C82,35.260387 81.5522847,35.7081023 81,35.7081023 C80.4477153,35.7081023 80,35.260387 80,34.7081023 L80,33.7081023 C80,33.1558175 80.4477153,32.7081023 81,32.7081023 C81.5522847,32.7081023 82,33.1558175 82,33.7081023 L82,34.7081023 Z M82,42.7081023 C82,43.260387 81.5522847,43.7081023 81,43.7081023 C80.4477153,43.7081023 80,43.260387 80,42.7081023 L80,41.7081023 C80,41.1558175 80.4477153,40.7081023 81,40.7081023 C81.5522847,40.7081023 82,41.1558175 82,41.7081023 L82,42.7081023 Z M82,50.7081023 C82,51.260387 81.5522847,51.7081023 81,51.7081023 C80.4477153,51.7081023 80,51.260387 80,50.7081023 L80,49.7081023 C80,49.1558175 80.4477153,48.7081023 81,48.7081023 C81.5522847,48.7081023 82,49.1558175 82,49.7081023 L82,50.7081023 Z M82,58.7081023 C82,59.260387 81.5522847,59.7081023 81,59.7081023 C80.4477153,59.7081023 80,59.260387 80,58.7081023 L80,57.7081023 C80,57.1558175 80.4477153,56.7081023 81,56.7081023 C81.5522847,56.7081023 82,57.1558175 82,57.7081023 L82,58.7081023 Z M82,66.7081023 C82,67.260387 81.5522847,67.7081023 81,67.7081023 C80.4477153,67.7081023 80,67.260387 80,66.7081023 L80,65.7081023 C80,65.1558175 80.4477153,64.7081023 81,64.7081023 C81.5522847,64.7081023 82,65.1558175 82,65.7081023 L82,66.7081023 Z M80.1535865,74.9535818 C79.878905,75.4327148 79.2678175,75.5984555 78.7886844,75.3237739 C78.3095514,75.0490924 78.1438107,74.4380049 78.4184922,73.9588718 C78.5715725,73.6918506 78.7143224,73.4190081 78.8463851,73.1409151 C79.0833005,72.6420268 79.6797872,72.4296558 80.1786755,72.6665712 C80.6775638,72.9034866 80.8899348,73.4999734 80.6530194,73.9988617 C80.4988558,74.323494 80.332238,74.6419562 80.1535865,74.9535818 Z M73.8640909,80.7161408 C73.3627014,80.9477158 72.7685162,80.7289879 72.5369412,80.2275984 C72.3053661,79.7262089 72.524094,79.1320237 73.0254835,78.9004487 C73.3049082,78.7713918 73.5791848,78.6315976 73.847744,78.4814161 C74.3297776,78.2118572 74.9390638,78.384102 75.2086227,78.8661357 C75.4781816,79.3481693 75.3059368,79.9574555 74.8239032,80.2270144 C74.5104597,80.4022957 74.1903003,80.5654755 73.8640909,80.7161408 Z M65.5837954,82 C65.0315107,82 64.5837954,81.5522847 64.5837954,81 C64.5837954,80.4477153 65.0315107,80 65.5837954,80 L66.5837954,80 C67.1360802,80 67.5837954,80.4477153 67.5837954,81 C67.5837954,81.5522847 67.1360802,82 66.5837954,82 L65.5837954,82 Z M57.5837954,82 C57.0315107,82 56.5837954,81.5522847 56.5837954,81 C56.5837954,80.4477153 57.0315107,80 57.5837954,80 L58.5837954,80 C59.1360802,80 59.5837954,80.4477153 59.5837954,81 C59.5837954,81.5522847 59.1360802,82 58.5837954,82 L57.5837954,82 Z M49.5837954,82 C49.0315107,82 48.5837954,81.5522847 48.5837954,81 C48.5837954,80.4477153 49.0315107,80 49.5837954,80 L50.5837954,80 C51.1360802,80 51.5837954,80.4477153 51.5837954,81 C51.5837954,81.5522847 51.1360802,82 50.5837954,82 L49.5837954,82 Z M41.5837954,82 C41.0315107,82 40.5837954,81.5522847 40.5837954,81 C40.5837954,80.4477153 41.0315107,80 41.5837954,80 L42.5837954,80 C43.1360802,80 43.5837954,80.4477153 43.5837954,81 C43.5837954,81.5522847 43.1360802,82 42.5837954,82 L41.5837954,82 Z M33.5837954,82 C33.0315107,82 32.5837954,81.5522847 32.5837954,81 C32.5837954,80.4477153 33.0315107,80 33.5837954,80 L34.5837954,80 C35.1360802,80 35.5837954,80.4477153 35.5837954,81 C35.5837954,81.5522847 35.1360802,82 34.5837954,82 L33.5837954,82 Z M25.5837954,82 C25.0315107,82 24.5837954,81.5522847 24.5837954,81 C24.5837954,80.4477153 25.0315107,80 25.5837954,80 L26.5837954,80 C27.1360802,80 27.5837954,80.4477153 27.5837954,81 C27.5837954,81.5522847 27.1360802,82 26.5837954,82 L25.5837954,82 Z M17.5837954,82 C17.0315107,82 16.5837954,81.5522847 16.5837954,81 C16.5837954,80.4477153 17.0315107,80 17.5837954,80 L18.5837954,80 C19.1360802,80 19.5837954,80.4477153 19.5837954,81 C19.5837954,81.5522847 19.1360802,82 18.5837954,82 L17.5837954,82 Z M9.32505581,81.2001556 C8.8044573,81.0157766 8.53189759,80.4442793 8.71627666,79.9236808 C8.90065573,79.4030823 9.47215297,79.1305226 9.99275148,79.3149017 C10.2822586,79.4174357 10.5758945,79.5088193 10.8731302,79.5888052 C11.4064427,79.7323192 11.7224367,80.2809954 11.5789228,80.8143079 C11.4354088,81.3476203 10.8867325,81.6636144 10.3534201,81.5201004 C10.0062244,81.4266703 9.66322443,81.319924 9.32505581,81.2001556 Z M2.51319891,76.0053224 C2.19705488,75.5524743 2.30787541,74.929083 2.76072351,74.612939 C3.2135716,74.2967949 3.83696289,74.4076155 4.15310692,74.8604636 C4.32929428,75.1128362 4.51513063,75.3584012 4.71016086,75.5965965 C5.06004226,76.0239154 4.99726677,76.6539607 4.56994786,77.0038421 C4.14262896,77.3537235 3.51258362,77.290948 3.16270221,76.8636291 C2.93532443,76.585927 2.7186473,76.2996089 2.51319891,76.0053224 Z M2.34976416e-09,67.8757617 C-3.7858485e-05,67.323477 0.447646698,66.875731 0.999931447,66.8756932 C1.5522162,66.8756553 1.99996214,67.3233399 2,67.8756246 L2,68.0147813 C2.00033484,68.2856367 2.00961959,68.5553322 2.02778051,68.8235926 C2.06508417,69.3746161 1.64863196,69.8515495 1.09760847,69.8888531 C0.546584985,69.9261568 0.0696516054,69.5097046 0.0323479521,68.9586811 C0.0111977617,68.6462653 0.000389564428,68.3323182 2.34976416e-09,68.0160532 L2.34976416e-09,67.8757617 Z M0,59.8756932 C0,59.3234084 0.44771525,58.8756932 1,58.8756932 C1.55228475,58.8756932 2,59.3234084 2,59.8756932 L2,60.8756932 C2,61.4279779 1.55228475,61.8756932 1,61.8756932 C0.44771525,61.8756932 0,61.4279779 0,60.8756932 L0,59.8756932 Z M0,51.8756932 C0,51.3234084 0.44771525,50.8756932 1,50.8756932 C1.55228475,50.8756932 2,51.3234084 2,51.8756932 L2,52.8756932 C2,53.4279779 1.55228475,53.8756932 1,53.8756932 C0.44771525,53.8756932 0,53.4279779 0,52.8756932 L0,51.8756932 Z M0,43.8756932 C0,43.3234084 0.44771525,42.8756932 1,42.8756932 C1.55228475,42.8756932 2,43.3234084 2,43.8756932 L2,44.8756932 C2,45.4279779 1.55228475,45.8756932 1,45.8756932 C0.44771525,45.8756932 0,45.4279779 0,44.8756932 L0,43.8756932 Z M0,35.8756932 C0,35.3234084 0.44771525,34.8756932 1,34.8756932 C1.55228475,34.8756932 2,35.3234084 2,35.8756932 L2,36.8756932 C2,37.4279779 1.55228475,37.8756932 1,37.8756932 C0.44771525,37.8756932 0,37.4279779 0,36.8756932 L0,35.8756932 Z M0,27.8756932 C0,27.3234084 0.44771525,26.8756932 1,26.8756932 C1.55228475,26.8756932 2,27.3234084 2,27.8756932 L2,28.8756932 C2,29.4279779 1.55228475,29.8756932 1,29.8756932 C0.44771525,29.8756932 0,29.4279779 0,28.8756932 L0,27.8756932 Z M0,19.8756932 C0,19.3234084 0.44771525,18.8756932 1,18.8756932 C1.55228475,18.8756932 2,19.3234084 2,19.8756932 L2,20.8756932 C2,21.4279779 1.55228475,21.8756932 1,21.8756932 C0.44771525,21.8756932 0,21.4279779 0,20.8756932 L0,19.8756932 Z M0.184340116,11.7233149 C0.273526013,11.1782788 0.787664504,10.8087393 1.33270058,10.8979252 C1.87773665,10.9871111 2.24727623,11.5012495 2.15809033,12.0462856 C2.10854007,12.349099 2.07052595,12.6545069 2.04420607,12.9620552 C1.99711385,13.5123285 1.51285337,13.9202374 0.962580008,13.8731452 C0.412306651,13.826053 0.00439774271,13.3417925 0.0514899619,12.7915191 C0.082180282,12.4329023 0.126523537,12.0766457 0.184340116,11.7233149 Z M4.0701214,4.13098172 C4.45945039,3.73926578 5.09261241,3.73733077 5.48432836,4.12665977 C5.8760443,4.51598876 5.87797931,5.14915078 5.48865032,5.54086672 C5.27158399,5.75926387 5.06293416,5.98589184 4.86320467,6.22021397 C4.50494,6.64052918 3.87377631,6.69083107 3.4534611,6.3325664 C3.0331459,5.97430172 2.98284401,5.34313803 3.34110868,4.92282283 C3.5739197,4.64968953 3.81711763,4.38553665 4.0701214,4.13098172 Z M11.6223171,0.201247237 C12.1666843,0.108065809 12.6835196,0.473824158 12.776701,1.01819137 C12.8698824,1.56255859 12.5041241,2.07939388 11.9597569,2.17257531 C11.6558679,2.22459315 11.3547901,2.2882279 11.057017,2.36328187 C10.5214815,2.49826405 9.97791957,2.17355145 9.84293738,1.63801597 C9.70795519,1.10248048 10.0326678,0.558918513 10.5682033,0.423936325 C10.9159567,0.336284781 11.2675293,0.261977623 11.6223171,0.201247237 Z M19.8324091,0 C20.3846939,0 20.8324091,0.44771525 20.8324091,1 C20.8324091,1.55228475 20.3846939,2 19.8324091,2 L18.8324091,2 C18.2801244,2 17.8324091,1.55228475 17.8324091,1 C17.8324091,0.44771525 18.2801244,0 18.8324091,0 L19.8324091,0 Z M27.8324091,0 C28.3846939,0 28.8324091,0.44771525 28.8324091,1 C28.8324091,1.55228475 28.3846939,2 27.8324091,2 L26.8324091,2 C26.2801244,2 25.8324091,1.55228475 25.8324091,1 C25.8324091,0.44771525 26.2801244,0 26.8324091,0 L27.8324091,0 Z M35.8324091,0 C36.3846939,0 36.8324091,0.44771525 36.8324091,1 C36.8324091,1.55228475 36.3846939,2 35.8324091,2 L34.8324091,2 C34.2801244,2 33.8324091,1.55228475 33.8324091,1 C33.8324091,0.44771525 34.2801244,0 34.8324091,0 L35.8324091,0 Z M43.8324091,0 C44.3846939,0 44.8324091,0.44771525 44.8324091,1 C44.8324091,1.55228475 44.3846939,2 43.8324091,2 L42.8324091,2 C42.2801244,2 41.8324091,1.55228475 41.8324091,1 C41.8324091,0.44771525 42.2801244,0 42.8324091,0 L43.8324091,0 Z M51.8324091,0 C52.3846939,0 52.8324091,0.44771525 52.8324091,1 C52.8324091,1.55228475 52.3846939,2 51.8324091,2 L50.8324091,2 C50.2801244,2 49.8324091,1.55228475 49.8324091,1 C49.8324091,0.44771525 50.2801244,0 50.8324091,0 L51.8324091,0 Z M59.8324091,0 C60.3846939,0 60.8324091,0.44771525 60.8324091,1 C60.8324091,1.55228475 60.3846939,2 59.8324091,2 L58.8324091,2 C58.2801244,2 57.8324091,1.55228475 57.8324091,1 C57.8324091,0.44771525 58.2801244,0 58.8324091,0 L59.8324091,0 Z M67.8324091,0 C68.3846939,0 68.8324091,0.44771525 68.8324091,1 C68.8324091,1.55228475 68.3846939,2 67.8324091,2 L66.8324091,2 C66.2801244,2 65.8324091,1.55228475 65.8324091,1 C65.8324091,0.44771525 66.2801244,0 66.8324091,0 L67.8324091,0 Z" id="Rectangle" fill="#14BA5A" fill-rule="nonzero" opacity="0.5"></path>
            <g transform="translate(20.000000, 20.000000)" id="a/back-to-top">
                <circle id="Oval" fill="#14BA5A" fill-rule="nonzero" opacity="0.1" cx="21" cy="21" r="21"></circle>
                <g id="a/icons/32/chevron/up" transform="translate(5.000000, 5.000000)">
                    <g id="Group" transform="translate(8.000000, 15.000000)"></g>
                    <line x1="16.5" y1="8.5" x2="16.5" y2="23.5" id="Line-3" stroke="#14BA5A" stroke-width="2" stroke-linecap="round" stroke-linejoin="round" fill-rule="nonzero"></line>
                    <line x1="16.5" y1="8.5" x2="16.5" y2="23.5" id="Line-3" stroke="#14BA5A" stroke-width="2" stroke-linecap="round" stroke-linejoin="round" fill-rule="nonzero" transform="translate(16.500000, 16.000000) rotate(-90.000000) translate(-16.500000, -16.000000) "></line>
                </g>
            </g>
        </g>
    </g>
</svg>

<svg xmlns="http://www.w3.org/2000/svg" width="82" height="82"  fill="none" fill-rule="evenodd" xmlns:v="https://vecta.io/nano"><g fill="#14ba5a" fill-rule="nonzero"><path d="M69.075.041a1 1 0 1 1-.152 1.994L68 2a1 1 0 1 1 0-2l1.075.041zm7.887 3.204a1 1 0 1 1-1.281 1.536l-.731-.564a1 1 0 0 1 1.16-1.629l.852.657zm4.576 7.179a1 1 0 0 1-1.934.51l-.269-.882a1 1 0 1 1 1.889-.658l.315 1.03zM82 18.708a1 1 0 1 1-2 0v-1a1 1 0 1 1 2 0v1zm0 8a1 1 0 1 1-2 0v-1a1 1 0 1 1 2 0v1zm0 8a1 1 0 1 1-2 0v-1a1 1 0 1 1 2 0v1zm0 8a1 1 0 1 1-2 0v-1a1 1 0 1 1 2 0v1zm0 8a1 1 0 1 1-2 0v-1a1 1 0 1 1 2 0v1zm0 8a1 1 0 1 1-2 0v-1a1 1 0 1 1 2 0v1zm0 8a1 1 0 1 1-2 0v-1a1 1 0 1 1 2 0v1zm-1.846 8.245a1 1 0 1 1-1.735-.995l.428-.818a1 1 0 1 1 1.807.858l-.499.955zm-6.289 5.763a1 1 0 1 1-.839-1.816l.822-.419a1 1 0 1 1 .976 1.746l-.96.489zM65.584 82a1 1 0 1 1 0-2h1a1 1 0 1 1 0 2h-1zm-8 0a1 1 0 1 1 0-2h1a1 1 0 1 1 0 2h-1zm-8 0a1 1 0 1 1 0-2h1a1 1 0 1 1 0 2h-1zm-8 0a1 1 0 1 1 0-2h1a1 1 0 1 1 0 2h-1zm-8 0a1 1 0 1 1 0-2h1a1 1 0 1 1 0 2h-1zm-8 0a1 1 0 1 1 0-2h1a1 1 0 1 1 0 2h-1zm-8 0a1 1 0 1 1 0-2h1a1 1 0 1 1 0 2h-1zm-8.259-.8a1 1 0 1 1 .668-1.885l.88.274a1 1 0 0 1-.52 1.931l-1.028-.32zm-6.812-5.195a1 1 0 1 1 1.64-1.145l.557.736a1 1 0 0 1-1.547 1.267l-.65-.858zM0 67.876a1 1 0 1 1 2 0v.139l.028.809a1 1 0 0 1-1.995.135L0 68.016v-.14zm0-8a1 1 0 1 1 2 0v1a1 1 0 1 1-2 0v-1zm0-8a1 1 0 1 1 2 0v1a1 1 0 1 1-2 0v-1zm0-8a1 1 0 1 1 2 0v1a1 1 0 1 1-2 0v-1zm0-8a1 1 0 1 1 2 0v1a1 1 0 1 1-2 0v-1zm0-8a1 1 0 1 1 2 0v1a1 1 0 1 1-2 0v-1zm0-8a1 1 0 1 1 2 0v1a1 1 0 1 1-2 0v-1zm.184-8.152a1 1 0 0 1 1.974.323l-.114.916a1 1 0 1 1-1.993-.171l.133-1.068zM4.07 4.131a1 1 0 0 1 1.419 1.41l-.625.679a1 1 0 0 1-1.522-1.297l.729-.792zm7.552-3.93a1 1 0 0 1 .337 1.971l-.903.191a1 1 0 0 1-.489-1.939l1.054-.223zM19.832 0a1 1 0 1 1 0 2h-1a1 1 0 1 1 0-2h1zm8 0a1 1 0 1 1 0 2h-1a1 1 0 1 1 0-2h1zm8 0a1 1 0 1 1 0 2h-1a1 1 0 1 1 0-2h1zm8 0a1 1 0 1 1 0 2h-1a1 1 0 1 1 0-2h1zm8 0a1 1 0 1 1 0 2h-1a1 1 0 1 1 0-2h1zm8 0a1 1 0 1 1 0 2h-1a1 1 0 1 1 0-2h1zm8 0a1 1 0 1 1 0 2h-1a1 1 0 1 1 0-2h1z" opacity=".5"/><circle opacity=".1" cx="41" cy="41" r="21"/></g><g stroke="#14ba5a" stroke-width="2" stroke-linecap="round" stroke-linejoin="round"><path d="M41.5 33.5v15"/><path d="M34 41h15"/></g></svg>
